X: 23
T:Kiss Me Sweetly. JB.23
M:4/4
L:1/8
Q:120
S:James Biggins MS, Leeds, 1779.
R:Reel
O:England
A:Yorkshire
Z:vmp.Nick Barber & Chris Partington
K:C
EGcG|AGcG|EGcG dDDF|EGcG EGga|gede c/c/cc2|!
|g|a/g/f/e/ cg egcg|a/g/f/e/ cg eddg|a/g/f/e/ cg egfe|cAGE C/C/CC2|]
